icons/desktop/16/svg/globe-16.svg

<svg width="16" height="16" viewBox="0 0 16 16" fill="none" xmlns="http://www.w3.org/2000/svg">
<path fill-rule="evenodd" clip-rule="evenodd" d="M8 0C12.4183 0 16 3.58172 16 8C16 12.4183 12.4183 16 8 16C3.58172 16 0 12.4183 0 8C0 3.58172 3.58172 0 8 0ZM5.53418 8.75C5.70867 10.8657 6.61324 12.7719 7.99902 14.2197C9.38495 12.7717 10.2921 10.8659 10.4668 8.75H5.53418ZM1.54395 8.75C1.83889 11.3167 3.62828 13.4272 6.02051 14.1914C4.8892 12.6446 4.1705 10.7768 4.02734 8.75H1.54395ZM11.9736 8.75C11.8304 10.7771 11.1098 12.6445 9.97852 14.1914C12.3712 13.4275 14.1611 11.317 14.4561 8.75H11.9736ZM7.99902 1.7793C6.61297 3.22716 5.70869 5.1341 5.53418 7.25H10.4668C10.2921 5.13368 9.38567 3.22726 7.99902 1.7793ZM9.98047 1.80762C11.1119 3.35455 11.8305 5.22306 11.9736 7.25H14.4561C14.1611 4.6835 12.3724 2.57197 9.98047 1.80762ZM6.02051 1.80762C3.62813 2.57173 1.8389 4.68319 1.54395 7.25H4.02734C4.17052 5.22293 4.88893 3.35458 6.02051 1.80762Z" fill="black"/>
</svg>

<!-- This Source Code Form is subject to the terms of the Mozilla Public
   - License, v. 2.0. If a copy of the MPL was not distributed with this
   - file, You can obtain one at http://mozilla.org/MPL/2.0/. -->
<svg xmlns="http://www.w3.org/2000/svg" width="16" height="16" fill="context-fill" fill-opacity="context-fill-opacity" viewBox="0 0 16 16">
    <path d="M8 0a8 8 0 1 1 0 16A8 8 0 0 1 8 0M5.534 8.75A8.96 8.96 0 0 0 8 14.22a8.96 8.96 0 0 0 2.468-5.47zm-3.99 0a6.5 6.5 0 0 0 4.477 5.441A10.45 10.45 0 0 1 4.027 8.75zm10.43 0a10.45 10.45 0 0 1-1.995 5.441 6.5 6.5 0 0 0 4.477-5.441zM7.999 1.78a8.96 8.96 0 0 0-2.465 5.47h4.933a8.96 8.96 0 0 0-2.468-5.47m1.981.028a10.45 10.45 0 0 1 1.994 5.442h2.482A6.5 6.5 0 0 0 9.98 1.808m-3.96 0A6.5 6.5 0 0 0 1.545 7.25h2.483a10.45 10.45 0 0 1 1.994-5.442" />
</svg>
